public/images/hashed/6d2466263d2911092fad144d148c905e.svg

<svg xmlns="http://www.w3.org/2000/svg" width="80" height="80"><defs><linearGradient id="a" x1="0%" x2="100%" y1="100%" y2="0%"><stop offset="0%" stop-color="#1B660F"/><stop offset="100%" stop-color="#6CAE3E"/></linearGradient></defs><g fill="none" fill-rule="evenodd"><path fill="url(#a)" d="M0 0h80v80H0z"/><path fill="#FFF" d="m63.588 39.998-.743-.666-6.586 6.398c-.051-.004-.099-.015-.15-.015a1.88 1.88 0 0 0-1.879 1.879 1.88 1.88 0 0 0 1.879 1.879 1.881 1.881 0 0 0 1.843-2.235l5.636-7.24Zm-4.636.958.742-1.858a9.629 9.629 0 0 0-3.585-.689c-5.465 0-9.911 4.515-9.911 10.064h2c0-4.447 3.549-8.064 7.911-8.064.979 0 1.935.184 2.843.547Zm5.204 1.68-1.632 1.155a8.066 8.066 0 0 1 1.495 4.682h2c0-2.097-.644-4.115-1.863-5.837Zm-27.724 5.837h2.084l3.476-5.077-.938-1.325-4.622 6.402Zm12.552-14.707h-2.055l-3.933 5.613-1.052 1.458 2.992 4.286a9.26 9.26 0 0 1 .718-2.08l-1.646-2.341 4.976-6.936Zm-6.861 4.368-3.059-4.368h-2.169l4.133 5.826 1.095-1.458Zm-10.124 1.132-2.769-1.061c-.915-.345-1.619-.668-2.11-.971-.492-.301-.845-.638-1.061-1.009-.216-.371-.324-.858-.324-1.462 0-1.07.354-1.894 1.061-2.472.708-.578 1.726-.867 3.055-.867 1.362 0 2.925.31 4.684.931v-1.319a12.236 12.236 0 0 0-2.368-.764A11.335 11.335 0 0 0 29.773 30c-1.674 0-3.025.445-4.051 1.333-1.027.889-1.54 2.049-1.54 3.481 0 1.053.311 1.937.932 2.653.621.717 1.596 1.333 2.924 1.851l3.003 1.165c1.035.397 1.786.846 2.252 1.346.466.501.698 1.104.698 1.812 0 1.156-.426 2.07-1.281 2.743-.853.673-1.997 1.01-3.429 1.01-1.518 0-3.183-.328-4.996-.984v1.32c1.502.725 3.21 1.087 5.125 1.087 1.847 0 3.335-.474 4.465-1.423 1.13-.949 1.695-2.191 1.695-3.728 0-1.052-.284-1.928-.854-2.626-.568-.7-1.475-1.291-2.717-1.774ZM13 30.44h10.068v1.372h-8.541v6.859h7.221v1.372h-7.221v8.334H13V30.44Z"/></g></svg>

<?xml version="1.0" encoding="UTF-8"?>
<svg width="80px" height="80px" viewBox="0 0 80 80" version="1.1" xmlns="http://www.w3.org/2000/svg" xmlns:xlink="http://www.w3.org/1999/xlink">
    <!-- Generator: Sketch 64 (93537) - https://sketch.com -->
    <title>Icon-Architecture/64/Arch_Amazon-FSx-for-Lustre_64</title>
    <desc>Created with Sketch.</desc>
    <defs>
        <linearGradient x1="0%" y1="100%" x2="100%" y2="0%" id="linearGradient-1">
            <stop stop-color="#1B660F" offset="0%"></stop>
            <stop stop-color="#6CAE3E" offset="100%"></stop>
        </linearGradient>
    </defs>
    <g id="Icon-Architecture/64/Arch_Amazon-FSx-for-Lustre_64" stroke="none" stroke-width="1" fill="none" fill-rule="evenodd">
        <g id="Icon-Architecture-BG/64/Storage" fill="url(#linearGradient-1)">
            <rect id="Rectangle" x="0" y="0" width="80" height="80"></rect>
        </g>
        <path d="M63.588,39.998 L62.845,39.332 L56.259,45.73 C56.208,45.726 56.16,45.715 56.109,45.715 C55.072,45.715 54.23,46.558 54.23,47.594 C54.23,48.63 55.072,49.473 56.109,49.473 C57.145,49.473 57.988,48.63 57.988,47.594 C57.988,47.472 57.975,47.353 57.952,47.238 L63.588,39.998 Z M58.952,40.956 L59.694,39.098 C58.549,38.641 57.343,38.409 56.109,38.409 C50.644,38.409 46.198,42.924 46.198,48.473 L48.198,48.473 C48.198,44.026 51.747,40.409 56.109,40.409 C57.088,40.409 58.044,40.593 58.952,40.956 L58.952,40.956 Z M64.156,42.636 L62.524,43.791 C63.502,45.173 64.019,46.792 64.019,48.473 L66.019,48.473 C66.019,46.376 65.375,44.358 64.156,42.636 L64.156,42.636 Z M36.432,48.473 L38.516,48.473 L41.992,43.396 L41.054,42.071 L36.432,48.473 Z M48.984,33.766 L46.929,33.766 L42.996,39.379 L41.944,40.837 L44.936,45.123 C45.09,44.4 45.336,43.705 45.654,43.043 L44.008,40.702 L48.984,33.766 Z M42.123,38.134 L39.064,33.766 L36.895,33.766 L41.028,39.592 L42.123,38.134 Z M31.999,39.266 L29.23,38.205 C28.315,37.86 27.611,37.537 27.12,37.234 C26.628,36.933 26.275,36.596 26.059,36.225 C25.843,35.854 25.735,35.367 25.735,34.763 C25.735,33.693 26.089,32.869 26.796,32.291 C27.504,31.713 28.522,31.424 29.851,31.424 C31.213,31.424 32.776,31.734 34.535,32.355 L34.535,31.036 C33.793,30.708 33.004,30.453 32.167,30.272 C31.33,30.091 30.532,30 29.773,30 C28.099,30 26.748,30.445 25.722,31.333 C24.695,32.222 24.182,33.382 24.182,34.814 C24.182,35.867 24.493,36.751 25.114,37.467 C25.735,38.184 26.71,38.8 28.038,39.318 L31.041,40.483 C32.076,40.88 32.827,41.329 33.293,41.829 C33.759,42.33 33.991,42.933 33.991,43.641 C33.991,44.797 33.565,45.711 32.71,46.384 C31.857,47.057 30.713,47.394 29.281,47.394 C27.763,47.394 26.098,47.066 24.285,46.41 L24.285,47.73 C25.787,48.455 27.495,48.817 29.41,48.817 C31.257,48.817 32.745,48.343 33.875,47.394 C35.005,46.445 35.57,45.203 35.57,43.666 C35.57,42.614 35.286,41.738 34.716,41.04 C34.148,40.34 33.241,39.749 31.999,39.266 L31.999,39.266 Z M13,30.44 L23.068,30.44 L23.068,31.812 L14.527,31.812 L14.527,38.671 L21.748,38.671 L21.748,40.043 L14.527,40.043 L14.527,48.377 L13,48.377 L13,30.44 Z" id="Amazon-FSx-for-Lustre-Icon_64_Squid" fill="#FFFFFF"></path>
    </g>
</svg>
